apps/16/abiword.svg

<?xml version="1.0" encoding="UTF-8" standalone="no"?>
<!-- Created with Inkscape (http://www.inkscape.org/) -->

<svg
   xmlns:dc="http://purl.org/dc/elements/1.1/"
   xmlns:cc="http://creativecommons.org/ns#"
   xmlns:rdf="http://www.w3.org/1999/02/22-rdf-syntax-ns#"
   xmlns:svg="http://www.w3.org/2000/svg"
   xmlns="http://www.w3.org/2000/svg"
   xmlns:sodipodi="http://sodipodi.sourceforge.net/DTD/sodipodi-0.dtd"
   xmlns:inkscape="http://www.inkscape.org/namespaces/inkscape"
   version="1.1"
   width="16"
   height="16"
   id="svg2"
   inkscape:version="0.48.3.1 r9886"
   sodipodi:docname="abiword.svg">
  <sodipodi:namedview
     pagecolor="#ffffff"
     bordercolor="#666666"
     borderopacity="1"
     objecttolerance="10"
     gridtolerance="10"
     guidetolerance="10"
     inkscape:pageopacity="0"
     inkscape:pageshadow="2"
     inkscape:window-width="1920"
     inkscape:window-height="1033"
     id="namedview6"
     showgrid="true"
     inkscape:zoom="29.5"
     inkscape:cx="2.0416807"
     inkscape:cy="9.2232323"
     inkscape:window-x="-10"
     inkscape:window-y="25"
     inkscape:window-maximized="1"
     inkscape:current-layer="svg2"
     inkscape:snap-global="false">
    <inkscape:grid
       type="xygrid"
       id="grid2982" />
  </sodipodi:namedview>
  <defs
     id="defs4" />
  <metadata
     id="metadata7">
    <rdf:RDF>
      <cc:Work
         rdf:about="">
        <dc:format>image/svg+xml</dc:format>
        <dc:type
           rdf:resource="http://purl.org/dc/dcmitype/StillImage" />
        <dc:title />
      </cc:Work>
    </rdf:RDF>
  </metadata>
  <path
     sodipodi:nodetypes="ccccccccc"
     inkscape:connector-curvature="0"
     id="path2983"
     d="M 8.0051724,1 C 5.7375153,1.0517784 0.8794965,10.772177 0.8878737,14.139419 0.9380989,15.028174 1.8494882,14.972741 2.4521151,15 c 3.9924114,-0.829666 9.3270039,-4.343715 9.5027659,-4.614635 0,0 -7.7571314,2.527622 -8.196548,1.702373 C 3.3084008,11.243299 6.6220052,4.0242231 8.0155879,4.058031 9.3840492,4.090011 14.926939,14.569786 14.926939,14.569786 14.872539,12.073936 13.696897,8.672124 12.267729,5.8881444 10.83856,3.1047744 9.1392102,0.97228365 8.0051724,1 z"
     style="color:#000000;fill:#27303a;fill-opacity:0.753280819999999968;fill-rule:nonzero;stroke:none;stroke-width:1;marker:none;visibility:visible;display:inline;overflow:visible;enable-background:accumulate" />
  <path
     style="font-size:medium;font-style:normal;font-variant:normal;font-weight:normal;font-stretch:normal;text-indent:0;text-align:start;text-decoration:none;line-height:normal;letter-spacing:normal;word-spacing:normal;text-transform:none;direction:ltr;block-progression:tb;writing-mode:lr-tb;text-anchor:start;baseline-shift:baseline;color:#000000;fill:#f1f3f5;fill-opacity:0.90288714000000003;fill-rule:nonzero;stroke:none;stroke-width:2;marker:none;visibility:visible;display:inline;overflow:visible;enable-background:accumulate;font-family:Sans;-inkscape-font-specification:Sans"
     d="M 7.96875 -0.1875 C 7.2618618 -0.17135932 6.771553 0.13610289 6.3125 0.5 C 5.853447 0.86389711 5.4242671 1.3115339 5 1.84375 C 4.1514659 2.9081823 3.3052746 4.3037058 2.53125 5.78125 C 1.7572254 7.2587942 1.0441652 8.8299276 0.53125 10.28125 C 0.01833477 11.732572 -0.31531573 13.02446 -0.3125 14.15625 A 1.20012 1.20012 0 0 0 -0.3125 14.21875 C -0.2883691 14.645755 -0.12588048 15.073495 0.15625 15.40625 C 0.43838048 15.739005 0.79434953 15.933876 1.09375 16.03125 C 1.6925509 16.225998 2.1688982 16.176764 2.40625 16.1875 A 1.20012 1.20012 0 0 0 2.6875 16.1875 C 4.9098998 15.725661 7.3083531 14.577866 9.21875 13.53125 C 10.173948 13.007942 11.01119 12.522736 11.625 12.125 C 11.789984 12.018094 11.898272 11.934476 12.03125 11.84375 C 12.822646 13.260372 13.875 15.125 13.875 15.125 A 1.20012 1.20012 0 0 0 16.125 14.53125 C 16.06291 11.682587 14.832192 8.2431936 13.34375 5.34375 C 12.597769 3.8909196 11.772392 2.6081541 10.9375 1.625 C 10.102608 0.6418459 9.3019081 -0.22008293 7.96875 -0.1875 z M 8 1 C 9.1340378 0.97228365 10.852081 3.09163 12.28125 5.875 C 13.710418 8.6589796 14.8831 12.06665 14.9375 14.5625 C 14.9375 14.5625 9.3684613 4.09448 8 4.0625 C 6.6064173 4.0286921 3.3000678 11.249311 3.75 12.09375 C 4.1894166 12.918999 11.96875 10.375 11.96875 10.375 C 11.792988 10.64592 6.4299114 14.170334 2.4375 15 C 1.8348731 14.972741 0.9252252 15.013755 0.875 14.125 C 0.8666228 10.757758 5.7323429 1.0517784 8 1 z M 7.96875 5.5 C 8.170974 5.7231131 8.4007353 6.008784 8.6875 6.40625 C 9.2809164 7.2287461 9.9715597 8.3931572 10.65625 9.53125 C 10.035541 9.7280521 9.1969356 9.9830705 7.71875 10.375 C 6.7886326 10.621613 5.8547218 10.823508 5.15625 10.9375 C 5.168593 10.89957 5.174213 10.883 5.1875 10.84375 C 5.4324454 10.120245 5.829404 9.1913319 6.28125 8.28125 C 6.733096 7.3711681 7.2213522 6.4714945 7.65625 5.875 C 7.7823944 5.7019836 7.8664184 5.6142101 7.96875 5.5 z "
     id="path3823" />
</svg>

<?xml version="1.0" encoding="UTF-8"?>
<svg id="a" width="16" height="16" version="1.1" xmlns="http://www.w3.org/2000/svg" xmlns:cc="http://creativecommons.org/ns#" xmlns:dc="http://purl.org/dc/elements/1.1/" xmlns:rdf="http://www.w3.org/1999/02/22-rdf-syntax-ns#">
	<metadata id="c">
		<rdf:RDF>
			<cc:Work rdf:about="">
				<dc:format>image/svg+xml</dc:format>
				<dc:type rdf:resource="http://purl.org/dc/dcmitype/StillImage"/>
				<dc:title/>
			</cc:Work>
		</rdf:RDF>
	</metadata>
	<defs>
		<style id="current-color-scheme" type="text/css">.ColorScheme-Text {color:#090d11;}.ColorScheme-Background{color:#ffffff;}</style>
	</defs>
	<path id="d" d="m8.0052 1c-2.2677 0.051778-7.1257 9.7722-7.1173 13.139 0.050225 0.88876 0.96161 0.83332 1.5642 0.86058 3.9924-0.82967 9.327-4.3437 9.5028-4.6146 0 0-7.7571 2.5276-8.1965 1.7024-0.44993-0.84444 2.8637-8.0635 4.2573-8.0297 1.3685 0.03198 6.9114 10.512 6.9114 10.512-0.0544-2.4958-1.23-5.8977-2.6592-8.6816-1.4292-2.7834-3.1285-4.9159-4.2626-4.8881z" style="fill-opacity:.75;fill:currentColor" class="ColorScheme-Text"/>
	<path id="b" d="m7.9688-0.1875c-0.70689 0.016141-1.1972 0.3236-1.6562 0.6875s-0.88823 0.81153-1.3125 1.3438c-0.84853 1.0644-1.6947 2.46-2.4688 3.9375s-1.4871 3.0487-2 4.5c-0.51292 1.4513-0.84657 2.7432-0.84375 3.875a1.2001 1.2001 0 0 0 0 0.0625c0.024131 0.427 0.18662 0.85474 0.46875 1.1875s0.6381 0.52763 0.9375 0.625c0.5988 0.19475 1.0751 0.14551 1.3125 0.15625a1.2001 1.2001 0 0 0 0.28125 0c2.2224-0.46184 4.6209-1.6096 6.5312-2.6562 0.9552-0.52331 1.7924-1.0085 2.4062-1.4062 0.16498-0.10691 0.27327-0.19052 0.40625-0.28125 0.7914 1.4166 1.8438 3.2812 1.8438 3.2812a1.2001 1.2001 0 0 0 2.25 -0.59375c-0.06209-2.8487-1.2928-6.2881-2.7812-9.1875-0.74598-1.4528-1.5714-2.7356-2.4062-3.7188s-1.6356-1.8451-2.9688-1.8125zm0.03125 1.1875c1.134-0.027716 2.8521 2.0916 4.2812 4.875 1.4292 2.784 2.6018 6.1916 2.6562 8.6875 0 0-5.569-10.468-6.9375-10.5-1.3936-0.033808-4.6999 7.1868-4.25 8.0312 0.43942 0.82525 8.2188-1.7188 8.2188-1.7188-0.17576 0.27092-5.5388 3.7953-9.5312 4.625-0.60263-0.027259-1.5123 0.013755-1.5625-0.875-0.0083772-3.3672 4.8573-13.073 7.125-13.125zm-0.03125 4.5c0.20222 0.22311 0.43199 0.50878 0.71875 0.90625 0.59342 0.8225 1.2841 1.9869 1.9688 3.125-0.62071 0.1968-1.4593 0.45182-2.9375 0.84375-0.93012 0.24661-1.864 0.44851-2.5625 0.5625 0.012343-0.03793 0.017963-0.0545 0.03125-0.09375 0.24495-0.7235 0.6419-1.6524 1.0938-2.5625s0.9401-1.8098 1.375-2.4062c0.12614-0.17302 0.21017-0.26079 0.3125-0.375z" style="fill-opacity:.5;fill:currentColor" class="ColorScheme-Background"/>
</svg>
